icons/breezeDark/toolpath/prof_on_climb.svg

<svg height="75" viewBox="0 0 19.84375 19.843751" width="75" xmlns="http://www.w3.org/2000/svg"><g transform="translate(0 -277.15623)"><circle cx="4.101042" cy="287.07809" fill="#c0c0c0" fill-opacity=".5" r="1.719792" stroke-width=".264583"/><path d="m37.462891 8a7.4999998 7.4999998 0 0 0 -7.445313 7h-15.017578v15.015625a7.4999998 7.4999998 0 0 0 -7 7.484375 7.4999998 7.4999998 0 0 0 7 7.484375v15.015625h45v-45h-15.015625a7.4999998 7.4999998 0 0 0 -7.484375-7 7.4999998 7.4999998 0 0 0 -.037109 0zm-21.462891 8h14.015625a7.4999998 7.4999998 0 0 0 7.484375 7 7.4999998 7.4999998 0 0 0 7.482422-7h14.017578v43h-43v-14.017578a7.4999998 7.4999998 0 0 0 7-7.482422 7.4999998 7.4999998 0 0 0 -7-7.484375zm-.5 15a6.5 6.5 0 0 1 .5.019531 6.5 6.5 0 0 1 6 6.480469 6.5 6.5 0 0 1 -6 6.480469 6.5 6.5 0 0 1 -.152344.009765 6.5 6.5 0 0 1 -.001953 0 6.5 6.5 0 0 1 -.210937.007813 6.5 6.5 0 0 1 -.134766.001953 6.5 6.5 0 0 1 -.5-.019531 6.5 6.5 0 0 1 -6-6.480469 6.5 6.5 0 0 1 6-6.480469 6.5 6.5 0 0 1 .152344-.009765 6.5 6.5 0 0 1 .001953 0 6.5 6.5 0 0 1 .210937-.007813 6.5 6.5 0 0 1 .134766-.001953z" fill="#c0c0c0" stroke-width=".989072" transform="matrix(.26458334 0 0 .26458334 0 277.15623)"/><circle cx="9.921875" cy="281.2572" fill="#3daee9" r="1.719792" stroke-width=".264583"/><path d="m28 11v1l7.5 3h-1.5v1h1.501953l-7.501953 3v1l8.488281-3.394531a1.5000001 1.5000001 0 0 0 1.011719.394531 1.5000001 1.5000001 0 0 0 1.5-1.5 1.5000001 1.5000001 0 0 0 -1.5-1.5 1.5000001 1.5000001 0 0 0 -1.011719.394531zm-13 4v1 4h1v-4h4v-1h-4zm7 0v1h4v-1zm6 0v1h4v-1zm-13 7v4h1v-4zm0 6v4h1v-4zm0 6v2.087891a1.5000001 1.5000001 0 0 0 -1 1.412109 1.5000001 1.5000001 0 0 0 1.5 1.5 1.5000001 1.5000001 0 0 0 1.5-1.5 1.5000001 1.5000001 0 0 0 -1-1.412109v-2.087891z" fill="#da4453" stroke-width=".417023" transform="matrix(.26458334 0 0 .26458334 0 277.15623)"/></g></svg>

<?xml version="1.0" encoding="UTF-8" standalone="no"?>
<svg
   xmlns:dc="http://purl.org/dc/elements/1.1/"
   xmlns:cc="http://creativecommons.org/ns#"
   xmlns:rdf="http://www.w3.org/1999/02/22-rdf-syntax-ns#"
   xmlns:svg="http://www.w3.org/2000/svg"
   xmlns="http://www.w3.org/2000/svg"
   xmlns:sodipodi="http://sodipodi.sourceforge.net/DTD/sodipodi-0.dtd"
   xmlns:inkscape="http://www.inkscape.org/namespaces/inkscape"
   sodipodi:docname="prof_on_climb.svg"
   inkscape:version="1.0beta1 (fe3e306, 2019-09-17)"
   id="svg8"
   version="1.1"
   viewBox="0 0 19.84375 19.843751"
   height="75"
   width="75">
  <defs
     id="defs2" />
  <sodipodi:namedview
     inkscape:document-rotation="0"
     inkscape:window-maximized="0"
     inkscape:window-y="0"
     inkscape:window-x="810"
     inkscape:window-height="1042"
     inkscape:window-width="1094"
     showguides="false"
     units="px"
     showgrid="true"
     inkscape:current-layer="layer1"
     inkscape:document-units="px"
     inkscape:cy="48.063461"
     inkscape:cx="29.926113"
     inkscape:zoom="8"
     inkscape:pageshadow="2"
     inkscape:pageopacity="0.0"
     borderopacity="1.0"
     bordercolor="#666666"
     pagecolor="#ffffff"
     id="base">
    <inkscape:grid
       id="grid10"
       type="xygrid" />
  </sodipodi:namedview>
  <metadata
     id="metadata5">
    <rdf:RDF>
      <cc:Work
         rdf:about="">
        <dc:format>image/svg+xml</dc:format>
        <dc:type
           rdf:resource="http://purl.org/dc/dcmitype/StillImage" />
        <dc:title />
      </cc:Work>
    </rdf:RDF>
  </metadata>
  <g
     transform="translate(0,-277.15623)"
     id="layer1"
     inkscape:groupmode="layer"
     inkscape:label="Layer 1">
    <circle
       style="fill:#c0c0c0;stroke-width:0.264583;fill-opacity:0.5"
       id="path24-4"
       cx="4.1010418"
       cy="287.07809"
       r="1.7197917" />
    <path
       transform="matrix(0.26458334,0,0,0.26458334,0,277.15623)"
       d="M 37.462891 8 A 7.4999998 7.4999998 0 0 0 30.017578 15 L 15 15 L 15 30.015625 A 7.4999998 7.4999998 0 0 0 8 37.5 A 7.4999998 7.4999998 0 0 0 15 44.984375 L 15 60 L 60 60 L 60 15 L 44.984375 15 A 7.4999998 7.4999998 0 0 0 37.5 8 A 7.4999998 7.4999998 0 0 0 37.462891 8 z M 16 16 L 30.015625 16 A 7.4999998 7.4999998 0 0 0 37.5 23 A 7.4999998 7.4999998 0 0 0 44.982422 16 L 59 16 L 59 59 L 16 59 L 16 44.982422 A 7.4999998 7.4999998 0 0 0 23 37.5 A 7.4999998 7.4999998 0 0 0 16 30.015625 L 16 16 z M 15.5 31 A 6.5 6.5 0 0 1 16 31.019531 A 6.5 6.5 0 0 1 22 37.5 A 6.5 6.5 0 0 1 16 43.980469 A 6.5 6.5 0 0 1 15.847656 43.990234 A 6.5 6.5 0 0 1 15.845703 43.990234 A 6.5 6.5 0 0 1 15.634766 43.998047 A 6.5 6.5 0 0 1 15.5 44 A 6.5 6.5 0 0 1 15 43.980469 A 6.5 6.5 0 0 1 9 37.5 A 6.5 6.5 0 0 1 15 31.019531 A 6.5 6.5 0 0 1 15.152344 31.009766 A 6.5 6.5 0 0 1 15.154297 31.009766 A 6.5 6.5 0 0 1 15.365234 31.001953 A 6.5 6.5 0 0 1 15.5 31 z "
       style="stroke-width:0.989072;fill:#c0c0c0;fill-opacity:1"
       id="rect14" />
    <circle
       r="1.7197917"
       cy="281.2572"
       cx="9.921875"
       id="path24"
       style="fill:#3daee9;stroke-width:0.26458335;fill-opacity:1" />
    <path
       transform="matrix(0.26458334,0,0,0.26458334,0,277.15623)"
       d="M 28 11 L 28 12 L 35.5 15 L 34 15 L 34 16 L 35.501953 16 L 28 19 L 28 20 L 36.488281 16.605469 A 1.5000001 1.5000001 0 0 0 37.5 17 A 1.5000001 1.5000001 0 0 0 39 15.5 A 1.5000001 1.5000001 0 0 0 37.5 14 A 1.5000001 1.5000001 0 0 0 36.488281 14.394531 L 28 11 z M 15 15 L 15 16 L 15 20 L 16 20 L 16 16 L 20 16 L 20 15 L 16 15 L 15 15 z M 22 15 L 22 16 L 26 16 L 26 15 L 22 15 z M 28 15 L 28 16 L 32 16 L 32 15 L 28 15 z M 15 22 L 15 26 L 16 26 L 16 22 L 15 22 z M 15 28 L 15 32 L 16 32 L 16 28 L 15 28 z M 15 34 L 15 36.087891 A 1.5000001 1.5000001 0 0 0 14 37.5 A 1.5000001 1.5000001 0 0 0 15.5 39 A 1.5000001 1.5000001 0 0 0 17 37.5 A 1.5000001 1.5000001 0 0 0 16 36.087891 L 16 34 L 15 34 z "
       style="fill:#da4453;fill-opacity:1;stroke-width:0.41702291"
       id="rect26" />
  </g>
</svg>
